X:1
T:Happy Feet
T:Yellen & Ager. arr. solo guitar G.Dempsey
%%score ( 1 2 3 4 )
L:1/8
Q:1/4=180
M:4/4
K:G
V:1 treble-8 nm="Guitar"
V:2 treble-8 
V:3 treble-8 
V:4 treble-8 
V:1
|: [GBe] g2 [Be]3 [Be]2 | z2 [Bg]2 [GBe]2 [Bg]2 | %2
"^1/2CIII.............................................................................      CIII......................................................................................" [G_Be] [eg]2 [Be]3 [GB]2 | %3
 z2 [_Beg]2 [GBe]2 [Beg]2 | %4
"^1/2CIII............................................." [GBe] g2 [Be]3 [Be]2 | %5
 z2 [Bg][Ge]- [Ge][Bg] [Ge]2 | [^Gc]=Fc=F- FF c2 | B8 | %8
"^CIV......................................................................................" [^CGB] [Be]2 [GB]3 [CG]2 | %9
 z2 [GBe]2 [^CGB]2 [GBe]2 | [DFB] [Bd]2 [FB]3 [DF]2 | z [Fcd]3 [FBd]2 [FBd]2 | %12
 [GBe]2 [GBe]2 [GBe]3 d | [GBe]2 [GBe]2 [GBe]3 ^e | [_Bdf]2 [Bdf]2 [Bdf]2 [Bdg]2- | %15
 [Bdg] [_Bdg]2 [Be] [A^df]2 [Ad]2 | [GBe] [Bg]2 [GBe]3 [GB]2 | z2 [Bg]2 [GBe]2 [Bg]2 | %18
 [G_Be] [eg]2 [Be]3 [GB]2 | z2 [_Beg]2 [GBe]2 [Beg]2 | [GBe] [Bg]2 [GBe]3 [GB]2 | %21
 z2 [Bg][Ge]- [Ge][Bg] [Ge]2 | c'=fc'f- ff d2 | [^gb]8 | %24
"^1/2CV.....................................   CVI......................................" !2!!3![^cb]2 [cb]2 b !4![Gcg]3 | %25
 !1!!4!!3![cgb]2 [cgb]2 b3 !4!a | !4!e'2 e'2 e'2 !1!!4![^Gdec']2- | %27
 [Gdec'] [^Gde]2 [Gd] [Gde]2 [Gde]2 | z2 f2 f2 e2 | e2 e2 d e3 | [Bg] [GB]2 [GB]2 [GBe] [GBg]2 | %31
 [_Be_b]G [Beb]2 !fermata![g=b]2 !fermata![gbg']2 ||"^Variation." [GBe] [Bg]2 [GBe]3 [GB]2 | %33
 z2 [GBe]4 [GBe]2 | %34
"^CV........................................................................................" [G_Be] [eg]2 [Be]3 [GB]2 | %35
 z [_Be]2 [Be]2 [Be]2 z | [Be] [Bg]2 [GBe]3 [GB]2 | z2 [Bg][Ge]- [Ge][Bg] [Ge]2 | %38
 [^Gc]=Fc=F- Fc F2 | B8 | [^CGB] [Be]2 [GB]3 [CG]2 | z2 [GBe]2 [^CGB]2 [GBe]2 | %42
 [DFB] [FBd]2 [FB]3 [DF]2 | z [Fcd]3 [FBd]2 [FBd]2 | %44
"^CIII......................................................." [GBe]2 [GBe]2 [GBe]3 d | %45
 !3!!2!!4![GBe]2 [GBe]2 [GBe]3 ^e | %46
"^CII.................               CIII........................................" [_Bdf]2 [Bdf]2 [Bdf]2 [Bdg]2- | %47
 [Bdg] [_Bdg]2 [Be] [A^df]2 [Ad]2 | [GBe] [Bg]2 [GBe]3 [GB]2 | z [GBe]2 [GBe]2 [GBe]3 | %50
 [G_Be] [eg]2 [Be]3 [GB]2 | z [_Be]2 [Be]2 [Be]3 | [GBe] [Bg]2 [GBe]3 [GB]2 | %53
 z2 [Bg][Ge]- [Ge][Bg] [Ge]2 | c'=fc'f- ff d2 | [^gb]8 | %56
"^CV............................................   CVI......................................." [^cb]2 [cb]2 b [Gcg]3 | %57
 [cgb]2 [cgb]2 b3 a | e2 e2 e2 [D^Gc]2- | [DGc] [D^G]2 [DG] [B,EG]2 [B,EG]2 | z2 f2 f2 e2 | %61
 e2 e2 d e3 | z [GBg]2 [GB]2 B, [GBg]2 | [_Be_b]G [Beb]2 !fermata![g=b]2 !fermata![gbg']2 |] %64
V:2
|: E,2 G2 E,2 G2 | E,2 G2 E,2 G2 | C2 G2 C2 G2 | C2 G2 C2 G2 | E,2 G2 E,2 G2 | E,2 E2 B,2 E2 | %6
 E,2 z2 E,2 z2 | [E,D^G] E2 E ^D2 =D2 | A,2 G2 A,2 ^C2 | A,2 z2 A,2 z2 | D2 F2 D2 z2 | D4 B,2 A,2 | %12
 G,2 G,2 G,3 z | ^C2 C2 C3 z | F,2 z2 !0!E,2 z C- | C C2 C B,2 B,2 | E,2 E2 B,2 E2 | %17
 E,2 E2 B,2 E2 | C2 G2 C2 G2 | C2 G2 C2 G2 | E,2 E2 B,2 E2 | E,2 E2 B,2 E2 | E2 z2 E2 z2 | %23
 [E,d] E2 E ^D2 =D2 | !1![A,G]2 [A,G]2 A,4 | !1!^D2 D2 [Dcg]4 | !4![Dgb]6 E,2- | E, E2 E E2 E2 | %28
 [^CGAB]8 | [DFB=c]4 [DF^A]4 | G,2 F,2 E,2 D2 | C2 C2 d2 d2 || E,2 E2 E,2 E2 | D4 ^C4 | %34
 C2 G2 C2 G2 | C2 ^C2 D2 ^D2 | E2 E2 B,2 E2 | E,2 E2 B,2 E2 | E,2 z2 E,2 z2 | %39
 [E,D^G] E2 E ^D2 =D2 | A,2 G2 A,2 ^C2 | A,2 z2 A,2 z2 | D2 z2 D2 z2 | D4 B,2 A,2 | G,2 G,2 G,3 z | %45
 !1!^C2 C2 C3 z | F,2 z2 !0!E,2 z C- | C C2 C B,2 B,2 | E,2 E2 ^D2 =D2 | ^C2 G,2 _B,2 =B,2 | %50
 C2 G2 C2 G2 | C2 ^C2 D2 ^D2 | E,2 E2 B,2 E2 | E,2 E2 B,2 E2 | E2 z2 E2 z2 | [E,d] E2 E ^D2 =D2 | %56
 [A,G]2 [A,G]2 A,4 | ^D2 D2 [Dcg]4 | [DGB]6 E,2- | E, E,2 E, E,2 E,2 | [^CGAB]8 | %61
 [DFB=c]4 [DF^A]4 | G,2 F,2 E,2 D2 | C2 C2 d2 d2 |] %64
V:3
|: x8 | x8 | x8 | x8 | x8 | x8 | x8 | x8 | x8 | x8 | x8 | x8 | x8 | x8 | x8 | x8 | x8 | x8 | x8 | %19
 x8 | x8 | x8 | [^Gd]4 x4 | x8 | x8 | x8 | x8 | x8 | x8 | x8 | x8 | x8 || x8 | x8 | x8 | x8 | x8 | %37
 x8 | x8 | x8 | x8 | x8 | x8 | x8 | x8 | x8 | x8 | x8 | x8 | x8 | x8 | x8 | x8 | x8 | [^Gd]4 x4 | %55
 x8 | x8 | x8 | x8 | x8 | x8 | x8 | x8 | x8 |] %64
V:4
|: x8 | x8 | x8 | x8 | x8 | x8 | x8 | x8 | x8 | x8 | x8 | x8 | x8 | x8 | x8 | x8 | x8 | x8 | x8 | %19
 x8 | x8 | x8 | x8 | x8 | x8 | x8 | x8 | x b7 | x8 | x8 | x8 | x8 || x8 | x8 | x8 | x8 | x8 | x8 | %38
 x8 | x8 | x8 | x8 | x8 | x8 | x8 | x8 | x8 | x8 | x8 | x8 | x8 | x8 | x8 | x8 | x8 | x8 | x8 | %57
 x8 | x8 | x B7 | x8 | x8 | x8 | x8 |] %64

